svgs/sharp-light/circle-euro.svg

<svg xmlns="http://www.w3.org/2000/svg" viewBox="0 0 512 512"><!--! Font Awesome Pro 6.6.0 by @fontawesome - https://fontawesome.com License - https://fontawesome.com/license (Commercial License) Copyright 2024 Fonticons, Inc. --><path d="M480 256A224 224 0 1 0 32 256a224 224 0 1 0 448 0zM0 256a256 256 0 1 1 512 0A256 256 0 1 1 0 256zm152.2 16c-.7-5-1-10.1-1-15.2c0-5.7 .4-11.3 1.2-16.8L112 240l0-32 50.2 0c18.2-37.9 56.9-64 101.7-64l41.1 0 16 0 0 32-16 0-41.1 0c-26.3 0-49.6 12.6-64.4 32L304 208l0 32-119.1 0c-1.1 5.4-1.7 11-1.7 16.8c0 5.2 .5 10.3 1.4 15.2L304 272l0 32-105.6 0c14.7 20.3 38.5 33.5 65.5 33.5l41.1 0 16 0 0 32-16 0-41.1 0c-45.4 0-84.5-26.8-102.4-65.5L112 304l0-32 40.2 0z"/></svg>

<svg xmlns="http://www.w3.org/2000/svg" viewBox="0 0 512 512"><!--! Font Awesome Pro 6.4.2 by @fontawesome - https://fontawesome.com License - https://fontawesome.com/license (Commercial License) Copyright 2023 Fonticons, Inc. --><path d="M480 256A224 224 0 1 0 32 256a224 224 0 1 0 448 0zM0 256a256 256 0 1 1 512 0A256 256 0 1 1 0 256zm152.2 16c-.7-5-1-10.1-1-15.2c0-5.7 .4-11.3 1.2-16.8H112V208h50.2c18.2-37.9 56.9-64 101.7-64H305h16v32H305 263.9c-26.3 0-49.6 12.6-64.4 32H304v32H184.9c-1.1 5.4-1.7 11-1.7 16.8c0 5.2 .5 10.3 1.4 15.2H304v32H198.4c14.7 20.3 38.5 33.5 65.5 33.5H305h16v32H305 263.9c-45.4 0-84.5-26.8-102.4-65.5H112V272h40.2z"/></svg>
